; G-Code generated by Simplify3D(R) Version 4.1.2
; Jan 3, 2024 at 7:07:14 PM
; Settings Summary
;   processName,Process1
;   applyToModels,Uconnector,Uconnector2,Uconnector(2),Uconnector2(2)
;   profileName,Farhan
;   profileVersion,2015-05-01 08:00:00
;   baseProfile,Default (modified)
;   printMaterial,PLA
;   printQuality,Medium
;   printExtruders,
;   extruderName,Primary Extruder
;   extruderToolheadNumber,0
;   extruderDiameter,0.4
;   extruderAutoWidth,1
;   extruderWidth,0.48
;   extrusionMultiplier,1
;   extruderUseRetract,1
;   extruderRetractionDistance,10
;   extruderExtraRestartDistance,0
;   extruderRetractionZLift,0
;   extruderRetractionSpeed,1800
;   extruderUseCoasting,1
;   extruderCoastingDistance,0.2
;   extruderUseWipe,0
;   extruderWipeDistance,5
;   primaryExtruder,0
;   layerHeight,0.16
;   topSolidLayers,5
;   bottomSolidLayers,5
;   perimeterOutlines,3
;   printPerimetersInsideOut,1
;   startPointOption,2
;   startPointOriginX,0
;   startPointOriginY,0
;   sequentialIslands,0
;   spiralVaseMode,0
;   firstLayerHeightPercentage,90
;   firstLayerWidthPercentage,100
;   firstLayerUnderspeed,0.5
;   useRaft,0
;   raftExtruder,0
;   raftTopLayers,3
;   raftBaseLayers,2
;   raftOffset,3
;   raftSeparationDistance,0.14
;   raftTopInfill,100
;   aboveRaftSpeedMultiplier,0.3
;   useSkirt,1
;   skirtExtruder,0
;   skirtLayers,1
;   skirtOutlines,2
;   skirtOffset,4
;   usePrimePillar,0
;   primePillarExtruder,999
;   primePillarWidth,12
;   primePillarLocation,7
;   primePillarSpeedMultiplier,1
;   useOozeShield,0
;   oozeShieldExtruder,999
;   oozeShieldOffset,2
;   oozeShieldOutlines,1
;   oozeShieldSidewallShape,1
;   oozeShieldSidewallAngle,30
;   oozeShieldSpeedMultiplier,1
;   infillExtruder,0
;   internalInfillPattern,Rectilinear
;   externalInfillPattern,Rectilinear
;   infillPercentage,20
;   outlineOverlapPercentage,21
;   infillExtrusionWidthPercentage,100
;   minInfillLength,2
;   infillLayerInterval,2
;   internalInfillAngles,45,-45
;   overlapInternalInfillAngles,0
;   externalInfillAngles,45,-45
;   generateSupport,1
;   supportExtruder,0
;   supportInfillPercentage,30
;   supportExtraInflation,0
;   supportBaseLayers,0
;   denseSupportExtruder,0
;   denseSupportLayers,4
;   denseSupportInfillPercentage,70
;   supportLayerInterval,2
;   supportHorizontalPartOffset,0.5
;   supportUpperSeparationLayers,1
;   supportLowerSeparationLayers,1
;   supportType,0
;   supportGridSpacing,1
;   maxOverhangAngle,57
;   supportAngles,0
;   temperatureName,Primary Extruder
;   temperatureNumber,0
;   temperatureSetpointCount,1
;   temperatureSetpointLayers,1
;   temperatureSetpointTemperatures,200
;   temperatureStabilizeAtStartup,1
;   temperatureHeatedBed,0
;   fanLayers,1,2
;   fanSpeeds,0,100
;   blipFanToFullPower,0
;   adjustSpeedForCooling,1
;   minSpeedLayerTime,15
;   minCoolingSpeedSlowdown,20
;   increaseFanForCooling,0
;   minFanLayerTime,45
;   maxCoolingFanSpeed,100
;   increaseFanForBridging,0
;   bridgingFanSpeed,100
;   use5D,1
;   relativeEdistances,1
;   allowEaxisZeroing,1
;   independentExtruderAxes,0
;   includeM10123,0
;   stickySupport,1
;   applyToolheadOffsets,0
;   gcodeXoffset,0
;   gcodeYoffset,0
;   gcodeZoffset,0
;   overrideMachineDefinition,1
;   machineTypeOverride,0
;   strokeXoverride,300
;   strokeYoverride,300
;   strokeZoverride,400
;   originOffsetXoverride,0
;   originOffsetYoverride,0
;   originOffsetZoverride,0
;   homeXdirOverride,-1
;   homeYdirOverride,-1
;   homeZdirOverride,-1
;   flipXoverride,1
;   flipYoverride,-1
;   flipZoverride,1
;   toolheadOffsets,0,0|0,0|0,0|0,0|0,0|0,0
;   overrideFirmwareConfiguration,0
;   firmwareTypeOverride,RepRap (Marlin/Repetier/Sprinter)
;   GPXconfigOverride,r2
;   baudRateOverride,115200
;   overridePrinterModels,0
;   printerModelsOverride
;   startingGcode,G28 ; home all axes
;   layerChangeGcode,
;   retractionGcode,
;   toolChangeGcode,
;   endingGcode,M104 S0 ; turn off extruder,M140 S0 ; turn off bed,M84 ; disable motors
;   exportFileFormat,x3g
;   celebration,0
;   celebrationSong,Random Song
;   postProcessing,
;   defaultSpeed,2400
;   outlineUnderspeed,1
;   solidInfillUnderspeed,1
;   supportUnderspeed,0.8
;   rapidXYspeed,4800
;   rapidZspeed,1002
;   minBridgingArea,50
;   bridgingExtraInflation,0
;   bridgingExtrusionMultiplier,1
;   bridgingSpeedMultiplier,1
;   useFixedBridgingAngle,0
;   fixedBridgingAngle,0
;   applyBridgingToPerimeters,0
;   filamentDiameters,1.75|1.75|1.75|1.75|1.75|1.75
;   filamentPricesPerKg,46|46|46|46|46|46
;   filamentDensities,1.25|1.25|1.25|1.25|1.25|1.25
;   useMinPrintHeight,0
;   minPrintHeight,0
;   useMaxPrintHeight,0
;   maxPrintHeight,0
;   useDiaphragm,0
;   diaphragmLayerInterval,20
;   robustSlicing,1
;   mergeAllIntoSolid,0
;   onlyRetractWhenCrossingOutline,0
;   retractBetweenLayers,0
;   useRetractionMinTravel,0
;   retractionMinTravel,3
;   retractWhileWiping,1
;   onlyWipeOutlines,1
;   avoidCrossingOutline,1
;   maxMovementDetourFactor,200
;   toolChangeRetractionDistance,12
;   toolChangeExtraRestartDistance,-0.5
;   toolChangeRetractionSpeed,600
;   externalThinWallType,0
;   internalThinWallType,2
;   thinWallAllowedOverlapPercentage,10
;   singleExtrusionMinLength,1
;   singleExtrusionMinPrintingWidthPercentage,50
;   singleExtrusionMaxPrintingWidthPercentage,200
;   singleExtrusionEndpointExtension,0.2
;   horizontalSizeCompensation,0
G90
M83
M106 S0
M104 S200 T0
M109 S200 T0
G28 ; home all axes
; process Process1
; layer 1, Z = 0.144
T0
G1 E-10.0000 F1800
; feature skirt
; tool H0.144 W0.480
G1 Z0.144 F1002
G1 X102.485 Y85.622 F4800
G1 E10.0000 F1800
G1 X105.250 Y82.857 E0.1124 F1200
G1 X114.160 Y82.857 E0.2560
G1 X116.925 Y85.622 E0.1124
G1 X116.925 Y108.802 E0.6661
G1 X118.145 Y110.022 E0.0496
G1 X118.145 Y115.372 E0.1537
G1 X117.924 Y115.593 E0.0090
G1 X117.924 Y118.341 E0.0790
G1 X116.925 Y119.339 E0.0406
G1 X116.925 Y119.998 E0.0189
G1 X117.023 Y121.110 E0.0321
G1 X117.261 Y121.996 E0.0264
G1 X117.648 Y122.828 E0.0264
G1 X118.174 Y123.579 E0.0264
G1 X118.823 Y124.228 E0.0264
G1 X119.574 Y124.754 E0.0264
G1 X120.406 Y125.141 E0.0264
G1 X121.291 Y125.379 E0.0264
G1 X122.411 Y125.477 E0.0323
G1 X131.999 Y125.477 E0.2755
G1 X133.119 Y125.379 E0.0323
G1 X134.005 Y125.141 E0.0264
G1 X134.836 Y124.754 E0.0264
G1 X135.588 Y124.228 E0.0264
G1 X136.236 Y123.579 E0.0264
G1 X136.762 Y122.828 E0.0264
G1 X137.150 Y121.996 E0.0264
G1 X137.387 Y121.111 E0.0264
G1 X137.485 Y119.991 E0.0323
G1 X137.485 Y119.241 E0.0216
G1 X136.585 Y118.341 E0.0366
G1 X136.585 Y115.692 E0.0761
G1 X136.265 Y115.372 E0.0130
G1 X136.265 Y110.022 E0.1537
G1 X137.485 Y108.802 E0.0496
G1 X137.485 Y85.622 E0.6661
G1 X140.250 Y82.857 E0.1124
G1 X149.160 Y82.857 E0.2560
G1 X149.705 Y83.402 E0.0221
G1 X150.250 Y82.857 E0.0221
G1 X159.160 Y82.857 E0.2560
G1 X161.925 Y85.622 E0.1124
G1 X161.925 Y114.991 E0.8440
G1 X162.023 Y116.111 E0.0323
G1 X162.261 Y116.996 E0.0264
G1 X162.648 Y117.828 E0.0264
G1 X163.174 Y118.579 E0.0264
G1 X163.823 Y119.228 E0.0264
G1 X164.574 Y119.754 E0.0264
G1 X165.406 Y120.141 E0.0264
G1 X166.291 Y120.379 E0.0264
G1 X167.411 Y120.477 E0.0323
G1 X176.999 Y120.477 E0.2755
G1 X178.119 Y120.379 E0.0323
G1 X179.005 Y120.141 E0.0264
G1 X179.836 Y119.754 E0.0264
G1 X180.588 Y119.228 E0.0264
G1 X181.236 Y118.579 E0.0264
G1 X181.762 Y117.828 E0.0264
G1 X182.150 Y116.996 E0.0264
G1 X182.387 Y116.111 E0.0264
G1 X182.485 Y114.991 E0.0323
G1 X182.485 Y85.622 E0.8440
G1 X185.250 Y82.857 E0.1124
G1 X194.160 Y82.857 E0.2560
G1 X196.925 Y85.622 E0.1124
G1 X196.925 Y125.300 E1.1402
G1 X196.916 Y125.506 E0.0059
G1 X196.737 Y127.550 E0.0590
G1 X196.666 Y127.956 E0.0118
G1 X196.108 Y130.038 E0.0619
G1 X195.967 Y130.425 E0.0118
G1 X195.056 Y132.378 E0.0619
G1 X194.850 Y132.735 E0.0118
G1 X193.614 Y134.501 E0.0619
G1 X193.349 Y134.816 E0.0118
G1 X191.825 Y136.340 E0.0619
G1 X191.509 Y136.605 E0.0118
G1 X189.744 Y137.842 E0.0619
G1 X189.387 Y138.048 E0.0118
G1 X187.433 Y138.959 E0.0619
G1 X187.046 Y139.100 E0.0118
G1 X184.964 Y139.657 E0.0619
G1 X184.558 Y139.729 E0.0118
G1 X182.514 Y139.908 E0.0590
G1 X182.308 Y139.917 E0.0059
G1 X181.911 Y139.917 E0.0114
G1 X181.312 Y139.969 E0.0173
G1 X180.931 Y140.071 E0.0113
G1 X180.574 Y140.238 E0.0113
G1 X180.251 Y140.464 E0.0113
G1 X179.972 Y140.743 E0.0113
G1 X179.746 Y141.066 E0.0113
G1 X179.580 Y141.423 E0.0113
G1 X179.478 Y141.804 E0.0113
G1 X179.425 Y142.403 E0.0173
G1 X179.425 Y154.771 E0.3554
G1 X176.660 Y157.536 E0.1124
G1 X167.750 Y157.536 E0.2560
G1 X164.985 Y154.771 E0.1124
G1 X164.985 Y142.403 E0.3554
G1 X164.933 Y141.804 E0.0173
G1 X164.831 Y141.423 E0.0113
G1 X164.664 Y141.066 E0.0113
G1 X164.438 Y140.743 E0.0113
G1 X164.159 Y140.464 E0.0113
G1 X163.836 Y140.238 E0.0113
G1 X163.479 Y140.071 E0.0113
G1 X163.098 Y139.969 E0.0113
G1 X162.499 Y139.917 E0.0173
G1 X162.102 Y139.917 E0.0114
G1 X161.896 Y139.908 E0.0059
G1 X159.852 Y139.729 E0.0590
G1 X159.446 Y139.657 E0.0118
G1 X157.364 Y139.100 E0.0619
G1 X156.977 Y138.959 E0.0118
G1 X155.024 Y138.048 E0.0619
G1 X154.667 Y137.842 E0.0118
G1 X152.901 Y136.605 E0.0619
G1 X152.585 Y136.341 E0.0118
G1 X151.061 Y134.816 E0.0619
G1 X150.797 Y134.501 E0.0118
G1 X149.705 Y132.942 E0.0547
G1 X148.614 Y134.501 E0.0547
G1 X148.349 Y134.816 E0.0118
G1 X146.825 Y136.340 E0.0619
G1 X146.509 Y136.605 E0.0118
G1 X144.744 Y137.842 E0.0619
G1 X144.387 Y138.048 E0.0118
G1 X142.433 Y138.959 E0.0619
G1 X142.046 Y139.100 E0.0118
G1 X139.964 Y139.657 E0.0619
G1 X139.558 Y139.729 E0.0118
G1 X137.514 Y139.908 E0.0590
G1 X137.308 Y139.917 E0.0059
G1 X136.911 Y139.917 E0.0114
G1 X136.312 Y139.969 E0.0173
G1 X135.931 Y140.071 E0.0113
G1 X135.574 Y140.238 E0.0113
G1 X135.251 Y140.464 E0.0113
G1 X134.972 Y140.743 E0.0113
G1 X134.746 Y141.066 E0.0113
G1 X134.580 Y141.423 E0.0113
G1 X134.478 Y141.804 E0.0113
G1 X134.425 Y142.403 E0.0173
G1 X134.425 Y154.771 E0.3554
G1 X131.660 Y157.536 E0.1124
G1 X122.750 Y157.536 E0.2560
G1 X119.985 Y154.771 E0.1124
G1 X119.985 Y142.403 E0.3554
G1 X119.933 Y141.804 E0.0173
G1 X119.831 Y141.423 E0.0113
G1 X119.664 Y141.066 E0.0113
G1 X119.438 Y140.743 E0.0113
G1 X119.159 Y140.464 E0.0113
G1 X118.836 Y140.238 E0.0113
G1 X118.479 Y140.071 E0.0113
G1 X118.098 Y139.969 E0.0113
G1 X117.499 Y139.917 E0.0173
G1 X117.102 Y139.917 E0.0114
G1 X116.896 Y139.908 E0.0059
G1 X114.852 Y139.729 E0.0590
G1 X114.446 Y139.657 E0.0118
G1 X112.364 Y139.100 E0.0619
G1 X111.977 Y138.959 E0.0118
G1 X110.024 Y138.048 E0.0619
G1 X109.667 Y137.842 E0.0118
G1 X107.901 Y136.605 E0.0619
G1 X107.585 Y136.341 E0.0118
G1 X106.061 Y134.816 E0.0619
G1 X105.797 Y134.501 E0.0118
G1 X104.560 Y132.735 E0.0619
G1 X104.354 Y132.378 E0.0118
G1 X103.443 Y130.425 E0.0619
G1 X103.302 Y130.038 E0.0118
G1 X102.745 Y127.956 E0.0619
G1 X102.673 Y127.550 E0.0118
G1 X102.494 Y125.506 E0.0590
G1 X102.485 Y125.300 E0.0059
G1 X102.485 Y85.622 E1.1402
G1 E-10.0000 F1800
G1 X102.965 Y85.821 F4800
G1 E10.0000 F1800
G1 X105.449 Y83.337 E0.1009 F1200
G1 X113.961 Y83.337 E0.2446
G1 X116.445 Y85.821 E0.1009
G1 X116.445 Y109.001 E0.6661
G1 X117.665 Y110.221 E0.0496
G1 X117.665 Y115.173 E0.1423
G1 X117.444 Y115.395 E0.0090
G1 X117.444 Y118.142 E0.0790
G1 X116.445 Y119.140 E0.0406
G1 X116.445 Y120.019 E0.0253
G1 X116.548 Y121.194 E0.0339
G1 X116.808 Y122.161 E0.0288
G1 X117.231 Y123.069 E0.0288
G1 X117.805 Y123.889 E0.0288
G1 X118.513 Y124.597 E0.0288
G1 X119.333 Y125.171 E0.0288
G1 X120.241 Y125.594 E0.0288
G1 X121.208 Y125.853 E0.0288
G1 X122.390 Y125.957 E0.0341
G1 X132.020 Y125.957 E0.2767
G1 X133.203 Y125.853 E0.0341
G1 X134.170 Y125.594 E0.0288
G1 X135.077 Y125.171 E0.0288
G1 X135.897 Y124.597 E0.0288
G1 X136.605 Y123.889 E0.0288
G1 X137.179 Y123.069 E0.0288
G1 X137.603 Y122.161 E0.0288
G1 X137.862 Y121.194 E0.0288
G1 X137.965 Y120.012 E0.0341
G1 X137.965 Y119.042 E0.0279
G1 X137.065 Y118.142 E0.0366
G1 X137.065 Y115.493 E0.0761
G1 X136.745 Y115.173 E0.0130
G1 X136.745 Y110.221 E0.1423
G1 X137.965 Y109.001 E0.0496
G1 X137.965 Y85.821 E0.6661
G1 X140.449 Y83.337 E0.1009
G1 X148.961 Y83.337 E0.2446
G1 X149.705 Y84.081 E0.0302
G1 X150.449 Y83.337 E0.0302
G1 X158.961 Y83.337 E0.2446
G1 X161.445 Y85.821 E0.1009
G1 X161.445 Y115.012 E0.8388
G1 X161.549 Y116.194 E0.0341
G1 X161.808 Y117.161 E0.0288
G1 X162.231 Y118.069 E0.0288
G1 X162.805 Y118.889 E0.0288
G1 X163.513 Y119.597 E0.0288
G1 X164.333 Y120.171 E0.0288
G1 X165.241 Y120.594 E0.0288
G1 X166.208 Y120.853 E0.0288
G1 X167.390 Y120.957 E0.0341
G1 X177.020 Y120.957 E0.2767
G1 X178.203 Y120.853 E0.0341
G1 X179.170 Y120.594 E0.0288
G1 X180.077 Y120.171 E0.0288
G1 X180.897 Y119.597 E0.0288
G1 X181.605 Y118.889 E0.0288
G1 X182.179 Y118.069 E0.0288
G1 X182.603 Y117.161 E0.0288
G1 X182.862 Y116.194 E0.0288
G1 X182.965 Y115.012 E0.0341
G1 X182.965 Y85.821 E0.8388
G1 X185.449 Y83.337 E0.1009
G1 X193.961 Y83.337 E0.2446
G1 X196.445 Y85.821 E0.1009
G1 X196.445 Y125.289 E1.1342
G1 X196.437 Y125.474 E0.0053
G1 X196.261 Y127.487 E0.0581
G1 X196.197 Y127.852 E0.0106
G1 X195.650 Y129.893 E0.0607
G1 X195.523 Y130.241 E0.0106
G1 X194.630 Y132.156 E0.0607
G1 X194.445 Y132.477 E0.0106
G1 X193.233 Y134.208 E0.0607
G1 X192.995 Y134.492 E0.0106
G1 X191.500 Y135.986 E0.0607
G1 X191.217 Y136.224 E0.0106
G1 X189.486 Y137.436 E0.0607
G1 X189.165 Y137.622 E0.0106
G1 X187.250 Y138.515 E0.0607
G1 X186.902 Y138.641 E0.0106
G1 X184.860 Y139.188 E0.0607
G1 X184.496 Y139.253 E0.0106
G1 X182.483 Y139.429 E0.0581
G1 X182.298 Y139.437 E0.0053
G1 X181.890 Y139.437 E0.0117
G1 X181.229 Y139.495 E0.0191
G1 X180.767 Y139.618 E0.0137
G1 X180.333 Y139.821 E0.0137
G1 X179.942 Y140.095 E0.0137
G1 X179.603 Y140.433 E0.0137
G1 X179.329 Y140.825 E0.0137
G1 X179.127 Y141.258 E0.0137
G1 X179.003 Y141.720 E0.0137
G1 X178.945 Y142.382 E0.0191
G1 X178.945 Y154.573 E0.3503
G1 X176.461 Y157.056 E0.1009
G1 X167.949 Y157.056 E0.2446
G1 X165.465 Y154.573 E0.1009
G1 X165.465 Y142.382 E0.3503
G1 X165.407 Y141.720 E0.0191
G1 X165.284 Y141.258 E0.0137
G1 X165.081 Y140.825 E0.0137
G1 X164.807 Y140.433 E0.0137
G1 X164.469 Y140.095 E0.0137
G1 X164.077 Y139.821 E0.0137
G1 X163.644 Y139.618 E0.0137
G1 X163.182 Y139.495 E0.0137
G1 X162.520 Y139.437 E0.0191
G1 X162.113 Y139.437 E0.0117
G1 X161.928 Y139.429 E0.0053
G1 X159.915 Y139.253 E0.0581
G1 X159.550 Y139.188 E0.0106
G1 X157.509 Y138.641 E0.0607
G1 X157.161 Y138.515 E0.0106
G1 X155.246 Y137.622 E0.0607
G1 X154.925 Y137.436 E0.0106
G1 X153.194 Y136.224 E0.0607
G1 X152.910 Y135.986 E0.0106
G1 X151.416 Y134.492 E0.0607
G1 X151.178 Y134.208 E0.0106
G1 X149.966 Y132.477 E0.0607
G1 X149.780 Y132.156 E0.0106
G1 X149.705 Y131.995 E0.0051
G1 X149.630 Y132.156 E0.0051
G1 X149.445 Y132.477 E0.0106
G1 X148.233 Y134.208 E0.0607
G1 X147.995 Y134.492 E0.0106
G1 X146.500 Y135.986 E0.0607
G1 X146.217 Y136.224 E0.0106
G1 X144.486 Y137.436 E0.0607
G1 X144.165 Y137.622 E0.0106
G1 X142.250 Y138.515 E0.0607
G1 X141.902 Y138.641 E0.0106
G1 X139.860 Y139.188 E0.0607
G1 X139.496 Y139.253 E0.0106
G1 X137.483 Y139.429 E0.0581
G1 X137.298 Y139.437 E0.0053
G1 X136.890 Y139.437 E0.0117
G1 X136.229 Y139.495 E0.0191
G1 X135.767 Y139.618 E0.0137
G1 X135.333 Y139.821 E0.0137
G1 X134.942 Y140.095 E0.0137
G1 X134.603 Y140.433 E0.0137
G1 X134.329 Y140.825 E0.0137
G1 X134.127 Y141.258 E0.0137
G1 X134.003 Y141.720 E0.0137
G1 X133.945 Y142.382 E0.0191
G1 X133.945 Y154.573 E0.3503
G1 X131.461 Y157.056 E0.1009
G1 X122.949 Y157.056 E0.2446
G1 X120.465 Y154.573 E0.1009
G1 X120.465 Y142.382 E0.3503
G1 X120.407 Y141.720 E0.0191
G1 X120.284 Y141.258 E0.0137
G1 X120.081 Y140.825 E0.0137
G1 X119.807 Y140.433 E0.0137
G1 X119.469 Y140.095 E0.0137
G1 X119.077 Y139.821 E0.0137
G1 X118.644 Y139.618 E0.0137
G1 X118.182 Y139.495 E0.0137
G1 X117.520 Y139.437 E0.0191
G1 X117.113 Y139.437 E0.0117
G1 X116.928 Y139.429 E0.0053
G1 X114.915 Y139.253 E0.0581
G1 X114.550 Y139.188 E0.0106
G1 X112.509 Y138.641 E0.0607
G1 X112.161 Y138.515 E0.0106
G1 X110.246 Y137.622 E0.0607
G1 X109.925 Y137.436 E0.0106
G1 X108.194 Y136.224 E0.0607
G1 X107.910 Y135.986 E0.0106
G1 X106.416 Y134.492 E0.0607
G1 X106.178 Y134.208 E0.0106
G1 X104.966 Y132.477 E0.0607
