; G-Code generated by Simplify3D(R) Version 4.1.2
; Jan 4, 2024 at 5:56:01 PM
; Settings Summary
;   processName,Process1
;   applyToModels,Uconnector
;   profileName,Farhan
;   profileVersion,2015-05-01 08:00:00
;   baseProfile,Default (modified)
;   printMaterial,PLA
;   printQuality,Medium
;   printExtruders,
;   extruderName,Primary Extruder
;   extruderToolheadNumber,0
;   extruderDiameter,0.4
;   extruderAutoWidth,1
;   extruderWidth,0.48
;   extrusionMultiplier,1.2
;   extruderUseRetract,1
;   extruderRetractionDistance,10
;   extruderExtraRestartDistance,0
;   extruderRetractionZLift,0
;   extruderRetractionSpeed,1800
;   extruderUseCoasting,1
;   extruderCoastingDistance,0.2
;   extruderUseWipe,0
;   extruderWipeDistance,5
;   primaryExtruder,0
;   layerHeight,0.16
;   topSolidLayers,5
;   bottomSolidLayers,5
;   perimeterOutlines,3
;   printPerimetersInsideOut,1
;   startPointOption,2
;   startPointOriginX,0
;   startPointOriginY,0
;   sequentialIslands,0
;   spiralVaseMode,0
;   firstLayerHeightPercentage,90
;   firstLayerWidthPercentage,100
;   firstLayerUnderspeed,0.5
;   useRaft,0
;   raftExtruder,0
;   raftTopLayers,3
;   raftBaseLayers,2
;   raftOffset,3
;   raftSeparationDistance,0.14
;   raftTopInfill,100
;   aboveRaftSpeedMultiplier,0.3
;   useSkirt,1
;   skirtExtruder,0
;   skirtLayers,1
;   skirtOutlines,2
;   skirtOffset,4
;   usePrimePillar,0
;   primePillarExtruder,999
;   primePillarWidth,12
;   primePillarLocation,7
;   primePillarSpeedMultiplier,1
;   useOozeShield,0
;   oozeShieldExtruder,999
;   oozeShieldOffset,2
;   oozeShieldOutlines,1
;   oozeShieldSidewallShape,1
;   oozeShieldSidewallAngle,30
;   oozeShieldSpeedMultiplier,1
;   infillExtruder,0
;   internalInfillPattern,Rectilinear
;   externalInfillPattern,Rectilinear
;   infillPercentage,70
;   outlineOverlapPercentage,32
;   infillExtrusionWidthPercentage,100
;   minInfillLength,2
;   infillLayerInterval,2
;   internalInfillAngles,45,-45
;   overlapInternalInfillAngles,1
;   externalInfillAngles,45,-45
;   generateSupport,1
;   supportExtruder,0
;   supportInfillPercentage,30
;   supportExtraInflation,0
;   supportBaseLayers,0
;   denseSupportExtruder,0
;   denseSupportLayers,4
;   denseSupportInfillPercentage,70
;   supportLayerInterval,2
;   supportHorizontalPartOffset,0.5
;   supportUpperSeparationLayers,1
;   supportLowerSeparationLayers,1
;   supportType,0
;   supportGridSpacing,1
;   maxOverhangAngle,57
;   supportAngles,0
;   temperatureName,Primary Extruder,HeatPAd
;   temperatureNumber,0,1
;   temperatureSetpointCount,1,2
;   temperatureSetpointLayers,1,1,5
;   temperatureSetpointTemperatures,220,60,5
;   temperatureStabilizeAtStartup,1,1
;   temperatureHeatedBed,0,1
;   fanLayers,1,2
;   fanSpeeds,0,100
;   blipFanToFullPower,0
;   adjustSpeedForCooling,1
;   minSpeedLayerTime,15
;   minCoolingSpeedSlowdown,20
;   increaseFanForCooling,0
;   minFanLayerTime,45
;   maxCoolingFanSpeed,100
;   increaseFanForBridging,0
;   bridgingFanSpeed,100
;   use5D,1
;   relativeEdistances,1
;   allowEaxisZeroing,1
;   independentExtruderAxes,0
;   includeM10123,0
;   stickySupport,1
;   applyToolheadOffsets,0
;   gcodeXoffset,0
;   gcodeYoffset,0
;   gcodeZoffset,0
;   overrideMachineDefinition,1
;   machineTypeOverride,0
;   strokeXoverride,300
;   strokeYoverride,300
;   strokeZoverride,400
;   originOffsetXoverride,0
;   originOffsetYoverride,0
;   originOffsetZoverride,0
;   homeXdirOverride,-1
;   homeYdirOverride,-1
;   homeZdirOverride,-1
;   flipXoverride,1
;   flipYoverride,-1
;   flipZoverride,1
;   toolheadOffsets,0,0|0,0|0,0|0,0|0,0|0,0
;   overrideFirmwareConfiguration,0
;   firmwareTypeOverride,RepRap (Marlin/Repetier/Sprinter)
;   GPXconfigOverride,r2
;   baudRateOverride,115200
;   overridePrinterModels,0
;   printerModelsOverride
;   startingGcode,G28 ; home all axes
;   layerChangeGcode,
;   retractionGcode,
;   toolChangeGcode,
;   endingGcode,M104 S0 ; turn off extruder,M140 S0 ; turn off bed,M84 ; disable motors
;   exportFileFormat,x3g
;   celebration,0
;   celebrationSong,Random Song
;   postProcessing,
;   defaultSpeed,1800
;   outlineUnderspeed,1
;   solidInfillUnderspeed,1
;   supportUnderspeed,0.8
;   rapidXYspeed,4800
;   rapidZspeed,1002
;   minBridgingArea,50
;   bridgingExtraInflation,0
;   bridgingExtrusionMultiplier,1
;   bridgingSpeedMultiplier,1
;   useFixedBridgingAngle,0
;   fixedBridgingAngle,0
;   applyBridgingToPerimeters,0
;   filamentDiameters,1.75|1.75|1.75|1.75|1.75|1.75
;   filamentPricesPerKg,46|46|46|46|46|46
;   filamentDensities,1.25|1.25|1.25|1.25|1.25|1.25
;   useMinPrintHeight,0
;   minPrintHeight,0
;   useMaxPrintHeight,0
;   maxPrintHeight,0
;   useDiaphragm,0
;   diaphragmLayerInterval,20
;   robustSlicing,1
;   mergeAllIntoSolid,0
;   onlyRetractWhenCrossingOutline,0
;   retractBetweenLayers,0
;   useRetractionMinTravel,0
;   retractionMinTravel,3
;   retractWhileWiping,1
;   onlyWipeOutlines,1
;   avoidCrossingOutline,1
;   maxMovementDetourFactor,200
;   toolChangeRetractionDistance,12
;   toolChangeExtraRestartDistance,-0.5
;   toolChangeRetractionSpeed,600
;   externalThinWallType,0
;   internalThinWallType,2
;   thinWallAllowedOverlapPercentage,10
;   singleExtrusionMinLength,1
;   singleExtrusionMinPrintingWidthPercentage,50
;   singleExtrusionMaxPrintingWidthPercentage,200
;   singleExtrusionEndpointExtension,0.2
;   horizontalSizeCompensation,0
G90
M83
M106 S0
M140 S60
M190 S60
M104 S220 T0
M109 S220 T0
G28 ; home all axes
; process Process1
; layer 1, Z = 0.144
T0
G1 E-10.0000 F1800
; feature skirt
; tool H0.144 W0.480
G1 Z0.144 F1002
G1 X142.780 Y115.425 F4800
G1 E10.0000 F1800
G1 X145.545 Y112.660 E0.1348 F900
G1 X154.455 Y112.660 E0.3073
G1 X157.220 Y115.425 E0.1348
G1 X157.220 Y127.794 E0.4265
G1 X157.272 Y128.393 E0.0207
G1 X157.374 Y128.774 E0.0136
G1 X157.541 Y129.131 E0.0136
G1 X157.767 Y129.454 E0.0136
G1 X158.046 Y129.733 E0.0136
G1 X158.369 Y129.959 E0.0136
G1 X158.726 Y130.126 E0.0136
G1 X159.107 Y130.228 E0.0136
G1 X159.706 Y130.280 E0.0207
G1 X160.103 Y130.280 E0.0137
G1 X160.309 Y130.289 E0.0071
G1 X162.353 Y130.468 E0.0708
G1 X162.759 Y130.539 E0.0142
G1 X164.841 Y131.097 E0.0743
G1 X165.228 Y131.238 E0.0142
G1 X167.182 Y132.149 E0.0743
G1 X167.538 Y132.355 E0.0142
G1 X169.304 Y133.591 E0.0743
G1 X169.620 Y133.856 E0.0142
G1 X171.144 Y135.380 E0.0743
G1 X171.409 Y135.696 E0.0142
G1 X172.645 Y137.462 E0.0743
G1 X172.851 Y137.818 E0.0142
G1 X173.762 Y139.772 E0.0743
G1 X173.903 Y140.159 E0.0142
G1 X174.461 Y142.241 E0.0743
G1 X174.532 Y142.647 E0.0142
G1 X174.711 Y144.691 E0.0708
G1 X174.720 Y144.897 E0.0071
G1 X174.720 Y184.570 E1.3681
G1 X171.955 Y187.335 E0.1348
G1 X163.045 Y187.335 E0.3073
G1 X160.280 Y184.570 E0.1348
G1 X160.280 Y155.206 E1.0126
G1 X160.182 Y154.086 E0.0388
G1 X159.945 Y153.200 E0.0316
G1 X159.557 Y152.369 E0.0316
G1 X159.031 Y151.618 E0.0316
G1 X158.382 Y150.969 E0.0316
G1 X157.631 Y150.443 E0.0316
G1 X156.800 Y150.055 E0.0316
G1 X155.914 Y149.818 E0.0316
G1 X154.794 Y149.720 E0.0388
G1 X145.206 Y149.720 E0.3306
G1 X144.086 Y149.818 E0.0388
G1 X143.200 Y150.055 E0.0316
G1 X142.369 Y150.443 E0.0316
G1 X141.618 Y150.969 E0.0316
G1 X140.969 Y151.618 E0.0316
G1 X140.443 Y152.369 E0.0316
G1 X140.055 Y153.200 E0.0316
G1 X139.818 Y154.086 E0.0316
G1 X139.720 Y155.206 E0.0388
G1 X139.720 Y184.570 E1.0126
G1 X136.955 Y187.335 E0.1348
G1 X128.045 Y187.335 E0.3073
G1 X125.280 Y184.570 E0.1348
G1 X125.280 Y144.897 E1.3681
G1 X125.289 Y144.691 E0.0071
G1 X125.468 Y142.647 E0.0708
G1 X125.539 Y142.241 E0.0142
G1 X126.097 Y140.159 E0.0743
G1 X126.238 Y139.772 E0.0142
G1 X127.149 Y137.818 E0.0743
G1 X127.355 Y137.462 E0.0142
G1 X128.591 Y135.696 E0.0743
G1 X128.856 Y135.380 E0.0142
G1 X130.380 Y133.856 E0.0743
G1 X130.696 Y133.591 E0.0142
G1 X132.462 Y132.355 E0.0743
G1 X132.818 Y132.149 E0.0142
G1 X134.772 Y131.238 E0.0743
G1 X135.159 Y131.097 E0.0142
G1 X137.241 Y130.539 E0.0743
G1 X137.647 Y130.468 E0.0142
G1 X139.688 Y130.289 E0.0707
G1 X139.888 Y130.280 E0.0069
G1 X140.303 Y130.279 E0.0143
G1 X140.893 Y130.228 E0.0204
G1 X141.274 Y130.126 E0.0136
G1 X141.631 Y129.959 E0.0136
G1 X141.954 Y129.733 E0.0136
G1 X142.233 Y129.454 E0.0136
G1 X142.459 Y129.131 E0.0136
G1 X142.626 Y128.774 E0.0136
G1 X142.728 Y128.393 E0.0136
G1 X142.780 Y127.794 E0.0207
G1 X142.780 Y115.425 E0.4265
G1 E-10.0000 F1800
G1 X143.260 Y115.624 F4800
G1 E10.0000 F1800
G1 X145.744 Y113.140 E0.1211 F900
G1 X154.256 Y113.140 E0.2935
G1 X156.740 Y115.624 E0.1211
G1 X156.740 Y127.815 E0.4204
G1 X156.798 Y128.476 E0.0229
G1 X156.922 Y128.938 E0.0165
G1 X157.124 Y129.372 E0.0165
G1 X157.398 Y129.764 E0.0165
G1 X157.736 Y130.102 E0.0165
G1 X158.128 Y130.376 E0.0165
G1 X158.562 Y130.578 E0.0165
G1 X159.024 Y130.702 E0.0165
G1 X159.685 Y130.760 E0.0229
G1 X160.093 Y130.760 E0.0140
G1 X160.277 Y130.768 E0.0064
G1 X162.290 Y130.944 E0.0697
G1 X162.655 Y131.008 E0.0128
G1 X164.696 Y131.555 E0.0729
G1 X165.044 Y131.682 E0.0128
G1 X166.960 Y132.575 E0.0729
G1 X167.280 Y132.760 E0.0128
G1 X169.011 Y133.973 E0.0729
G1 X169.295 Y134.211 E0.0128
G1 X170.789 Y135.705 E0.0729
G1 X171.027 Y135.989 E0.0128
G1 X172.240 Y137.720 E0.0729
G1 X172.425 Y138.040 E0.0128
G1 X173.318 Y139.956 E0.0729
G1 X173.445 Y140.304 E0.0128
G1 X173.992 Y142.345 E0.0729
G1 X174.056 Y142.710 E0.0128
G1 X174.232 Y144.723 E0.0697
G1 X174.240 Y144.907 E0.0064
G1 X174.240 Y184.372 E1.3609
G1 X171.756 Y186.855 E0.1211
G1 X163.244 Y186.855 E0.2935
G1 X160.760 Y184.372 E0.1211
G1 X160.760 Y155.185 E1.0065
G1 X160.657 Y154.003 E0.0409
G1 X160.397 Y153.036 E0.0345
G1 X159.974 Y152.128 E0.0345
G1 X159.400 Y151.308 E0.0345
G1 X158.692 Y150.600 E0.0345
G1 X157.872 Y150.026 E0.0345
G1 X156.964 Y149.603 E0.0345
G1 X155.997 Y149.343 E0.0345
G1 X154.815 Y149.240 E0.0409
G1 X145.185 Y149.240 E0.3321
G1 X144.003 Y149.343 E0.0409
G1 X143.036 Y149.603 E0.0345
G1 X142.128 Y150.026 E0.0345
G1 X141.308 Y150.600 E0.0345
G1 X140.600 Y151.308 E0.0345
G1 X140.026 Y152.128 E0.0345
G1 X139.603 Y153.036 E0.0345
G1 X139.343 Y154.003 E0.0345
G1 X139.240 Y155.185 E0.0409
G1 X139.240 Y184.372 E1.0065
G1 X136.756 Y186.855 E0.1211
G1 X128.244 Y186.855 E0.2935
G1 X125.760 Y184.372 E0.1211
G1 X125.760 Y144.907 E1.3609
G1 X125.768 Y144.723 E0.0064
G1 X125.944 Y142.710 E0.0697
G1 X126.008 Y142.345 E0.0128
G1 X126.555 Y140.304 E0.0729
G1 X126.682 Y139.956 E0.0128
G1 X127.575 Y138.040 E0.0729
G1 X127.760 Y137.720 E0.0128
G1 X128.973 Y135.989 E0.0729
G1 X129.211 Y135.705 E0.0128
G1 X130.705 Y134.211 E0.0729
G1 X130.989 Y133.973 E0.0128
G1 X132.720 Y132.760 E0.0729
G1 X133.040 Y132.575 E0.0128
G1 X134.956 Y131.682 E0.0729
G1 X135.304 Y131.555 E0.0128
G1 X137.345 Y131.008 E0.0729
G1 X137.710 Y130.944 E0.0128
G1 X139.720 Y130.768 E0.0696
G1 X139.900 Y130.760 E0.0062
G1 X140.324 Y130.759 E0.0146
G1 X140.976 Y130.702 E0.0226
G1 X141.438 Y130.578 E0.0165
G1 X141.872 Y130.376 E0.0165
G1 X142.264 Y130.102 E0.0165
G1 X142.602 Y129.764 E0.0165
G1 X142.876 Y129.372 E0.0165
G1 X143.078 Y128.938 E0.0165
G1 X143.202 Y128.476 E0.0165
G1 X143.260 Y127.815 E0.0229
G1 X143.260 Y115.624 E0.4204
G1 E-10.0000 F1800
; feature inner perimeter
G1 X147.740 Y117.620 F4800
G1 X147.740 Y118.059
G1 X148.700 Y118.580
G1 E10.0000 F1800
G1 X151.300 Y118.580 E0.0897 F900
G1 X151.300 Y128.052 E0.3266
G1 X151.420 Y129.425 E0.0475
G1 X151.790 Y130.806 E0.0493
G1 X152.395 Y132.102 E0.0493
G1 X153.215 Y133.274 E0.0493
G1 X154.226 Y134.285 E0.0493
G1 X155.398 Y135.105 E0.0493
G1 X156.694 Y135.710 E0.0493
G1 X158.075 Y136.080 E0.0493
G1 X159.448 Y136.200 E0.0475
G1 X159.948 Y136.200 E0.0172
G1 X161.527 Y136.338 E0.0547
G1 X163.008 Y136.735 E0.0529
G1 X164.398 Y137.383 E0.0529
G1 X165.654 Y138.262 E0.0529
G1 X166.738 Y139.346 E0.0529
G1 X167.617 Y140.602 E0.0529
G1 X168.265 Y141.992 E0.0529
G1 X168.662 Y143.473 E0.0529
G1 X168.800 Y145.052 E0.0547
G1 X168.800 Y181.415 E1.2539
G1 X166.200 Y181.415 E0.0897
G1 X166.200 Y154.948 E0.9127
G1 X166.034 Y153.054 E0.0655
G1 X165.529 Y151.168 E0.0674
G1 X164.703 Y149.398 E0.0673
G1 X163.583 Y147.798 E0.0674
G1 X162.202 Y146.417 E0.0674
G1 X160.602 Y145.297 E0.0674
G1 X158.832 Y144.471 E0.0673
G1 X156.946 Y143.966 E0.0674
G1 X155.052 Y143.800 E0.0655
G1 X144.948 Y143.800 E0.3485
G1 X143.054 Y143.966 E0.0655
G1 X141.168 Y144.471 E0.0674
G1 X139.398 Y145.297 E0.0673
G1 X137.798 Y146.417 E0.0673
G1 X136.417 Y147.798 E0.0674
G1 X135.297 Y149.398 E0.0673
G1 X134.471 Y151.168 E0.0673
G1 X133.966 Y153.054 E0.0674
G1 X133.800 Y154.948 E0.0655
G1 X133.800 Y181.415 E0.9127
G1 X131.200 Y181.415 E0.0897
G1 X131.200 Y145.052 E1.2539
G1 X131.338 Y143.473 E0.0547
G1 X131.735 Y141.992 E0.0529
G1 X132.383 Y140.602 E0.0529
G1 X133.262 Y139.346 E0.0529
G1 X134.346 Y138.262 E0.0529
G1 X135.602 Y137.383 E0.0529
G1 X136.992 Y136.735 E0.0529
G1 X138.473 Y136.338 E0.0529
G1 X140.054 Y136.200 E0.0547
G1 X140.568 Y136.199 E0.0177
G1 X141.925 Y136.080 E0.0469
G1 X143.306 Y135.710 E0.0493
G1 X144.602 Y135.105 E0.0493
G1 X145.774 Y134.285 E0.0493
G1 X146.785 Y133.274 E0.0493
G1 X147.605 Y132.102 E0.0493
G1 X148.210 Y130.806 E0.0493
G1 X148.580 Y129.425 E0.0493
G1 X148.700 Y128.052 E0.0475
G1 X148.700 Y118.780 E0.3197
G1 X148.700 Y118.580 F900
G1 E-10.0000 F1800
G1 X148.220 Y118.100 F4800
G1 E10.0000 F1800
G1 X151.780 Y118.100 E0.1228 F900
G1 X151.780 Y128.031 E0.3425
G1 X151.895 Y129.341 E0.0453
G1 X152.243 Y130.641 E0.0464
G1 X152.812 Y131.861 E0.0464
G1 X153.584 Y132.964 E0.0464
G1 X154.536 Y133.916 E0.0464
G1 X155.639 Y134.688 E0.0464
G1 X156.859 Y135.257 E0.0464
G1 X158.159 Y135.605 E0.0464
G1 X159.469 Y135.720 E0.0453
G1 X159.969 Y135.720 E0.0172
G1 X161.611 Y135.864 E0.0569
G1 X163.173 Y136.282 E0.0558
G1 X164.639 Y136.966 E0.0558
G1 X165.963 Y137.893 E0.0558
G1 X167.107 Y139.037 E0.0558
G1 X168.034 Y140.361 E0.0558
G1 X168.718 Y141.827 E0.0558
G1 X169.136 Y143.389 E0.0558
G1 X169.280 Y145.031 E0.0568
G1 X169.280 Y181.895 E1.2712
G1 X165.720 Y181.895 E0.1228
G1 X165.720 Y154.969 E0.9285
G1 X165.560 Y153.138 E0.0634
G1 X165.076 Y151.333 E0.0645
G1 X164.286 Y149.639 E0.0645
G1 X163.214 Y148.108 E0.0645
G1 X161.892 Y146.786 E0.0645
G1 X160.361 Y145.714 E0.0645
G1 X158.667 Y144.924 E0.0645
G1 X156.862 Y144.440 E0.0645
G1 X155.031 Y144.280 E0.0634
G1 X144.969 Y144.280 E0.3470
G1 X143.138 Y144.440 E0.0634
G1 X141.333 Y144.924 E0.0645
G1 X139.639 Y145.714 E0.0645
G1 X138.108 Y146.786 E0.0645
G1 X136.786 Y148.108 E0.0645
G1 X135.714 Y149.639 E0.0645
G1 X134.924 Y151.333 E0.0645
G1 X134.440 Y153.138 E0.0645
G1 X134.280 Y154.969 E0.0634
G1 X134.280 Y181.895 E0.9285
G1 X130.720 Y181.895 E0.1228
G1 X130.720 Y145.031 E1.2712
G1 X130.864 Y143.389 E0.0569
G1 X131.282 Y141.827 E0.0558
G1 X131.966 Y140.361 E0.0558
G1 X132.893 Y139.037 E0.0558
G1 X134.037 Y137.893 E0.0558
G1 X135.361 Y136.966 E0.0558
G1 X136.827 Y136.282 E0.0558
G1 X138.389 Y135.864 E0.0558
G1 X140.032 Y135.720 E0.0569
G1 X140.547 Y135.719 E0.0177
G1 X141.841 Y135.605 E0.0448
G1 X143.141 Y135.257 E0.0464
G1 X144.361 Y134.688 E0.0464
G1 X145.464 Y133.916 E0.0464
G1 X146.416 Y132.964 E0.0464
G1 X147.188 Y131.861 E0.0464
G1 X147.757 Y130.641 E0.0464
G1 X148.105 Y129.341 E0.0464
G1 X148.220 Y128.031 E0.0453
G1 X148.220 Y118.300 E0.3356
G1 X148.220 Y118.100 F900
G1 E-10.0000 F1800
; feature outer perimeter
G1 X147.740 Y117.620 F4800
G1 E10.0000 F1800
G1 X152.260 Y117.620 E0.1559 F900
G1 X152.260 Y128.010 E0.3583
G1 X152.369 Y129.257 E0.0432
G1 X152.696 Y130.477 E0.0435
G1 X153.229 Y131.620 E0.0435
G1 X153.953 Y132.654 E0.0435
G1 X154.846 Y133.547 E0.0435
G1 X155.880 Y134.271 E0.0435
G1 X157.023 Y134.804 E0.0435
G1 X158.243 Y135.131 E0.0435
G1 X159.490 Y135.240 E0.0432
G1 X159.989 Y135.240 E0.0172
G1 X161.695 Y135.389 E0.0590
G1 X163.338 Y135.829 E0.0587
G1 X164.880 Y136.548 E0.0587
G1 X166.273 Y137.524 E0.0587
G1 X167.476 Y138.727 E0.0587
G1 X168.452 Y140.120 E0.0587
G1 X169.171 Y141.662 E0.0587
G1 X169.611 Y143.305 E0.0587
G1 X169.760 Y145.011 E0.0590
G1 X169.760 Y182.375 E1.2885
G1 X165.240 Y182.375 E0.1559
G1 X165.240 Y154.990 E0.9444
G1 X165.085 Y153.222 E0.0612
G1 X164.623 Y151.497 E0.0616
