; G-Code generated by Simplify3D(R) Version 4.1.2
; Jan 4, 2024 at 6:54:05 PM
; Settings Summary
;   processName,Process1
;   applyToModels,Uconnector2
;   profileName,Farhan
;   profileVersion,2015-05-01 08:00:00
;   baseProfile,Default (modified)
;   printMaterial,PLA
;   printQuality,Medium
;   printExtruders,
;   extruderName,Primary Extruder
;   extruderToolheadNumber,0
;   extruderDiameter,0.4
;   extruderAutoWidth,1
;   extruderWidth,0.48
;   extrusionMultiplier,1.2
;   extruderUseRetract,1
;   extruderRetractionDistance,10
;   extruderExtraRestartDistance,0
;   extruderRetractionZLift,0
;   extruderRetractionSpeed,1800
;   extruderUseCoasting,1
;   extruderCoastingDistance,0.2
;   extruderUseWipe,0
;   extruderWipeDistance,5
;   primaryExtruder,0
;   layerHeight,0.16
;   topSolidLayers,5
;   bottomSolidLayers,5
;   perimeterOutlines,3
;   printPerimetersInsideOut,1
;   startPointOption,2
;   startPointOriginX,0
;   startPointOriginY,0
;   sequentialIslands,0
;   spiralVaseMode,0
;   firstLayerHeightPercentage,90
;   firstLayerWidthPercentage,100
;   firstLayerUnderspeed,0.5
;   useRaft,0
;   raftExtruder,0
;   raftTopLayers,3
;   raftBaseLayers,2
;   raftOffset,3
;   raftSeparationDistance,0.14
;   raftTopInfill,100
;   aboveRaftSpeedMultiplier,0.3
;   useSkirt,1
;   skirtExtruder,0
;   skirtLayers,1
;   skirtOutlines,2
;   skirtOffset,4
;   usePrimePillar,0
;   primePillarExtruder,999
;   primePillarWidth,12
;   primePillarLocation,7
;   primePillarSpeedMultiplier,1
;   useOozeShield,0
;   oozeShieldExtruder,999
;   oozeShieldOffset,2
;   oozeShieldOutlines,1
;   oozeShieldSidewallShape,1
;   oozeShieldSidewallAngle,30
;   oozeShieldSpeedMultiplier,1
;   infillExtruder,0
;   internalInfillPattern,Rectilinear
;   externalInfillPattern,Rectilinear
;   infillPercentage,70
;   outlineOverlapPercentage,40
;   infillExtrusionWidthPercentage,100
;   minInfillLength,2
;   infillLayerInterval,2
;   internalInfillAngles,45,-45
;   overlapInternalInfillAngles,1
;   externalInfillAngles,45,-45
;   generateSupport,1
;   supportExtruder,0
;   supportInfillPercentage,30
;   supportExtraInflation,0
;   supportBaseLayers,0
;   denseSupportExtruder,0
;   denseSupportLayers,4
;   denseSupportInfillPercentage,70
;   supportLayerInterval,2
;   supportHorizontalPartOffset,0.5
;   supportUpperSeparationLayers,1
;   supportLowerSeparationLayers,1
;   supportType,0
;   supportGridSpacing,1
;   maxOverhangAngle,57
;   supportAngles,0
;   temperatureName,Primary Extruder,HeatPAd
;   temperatureNumber,0,1
;   temperatureSetpointCount,1,2
;   temperatureSetpointLayers,1,1,5
;   temperatureSetpointTemperatures,220,60,5
;   temperatureStabilizeAtStartup,1,1
;   temperatureHeatedBed,0,1
;   fanLayers,1,2
;   fanSpeeds,0,100
;   blipFanToFullPower,0
;   adjustSpeedForCooling,1
;   minSpeedLayerTime,15
;   minCoolingSpeedSlowdown,20
;   increaseFanForCooling,0
;   minFanLayerTime,45
;   maxCoolingFanSpeed,100
;   increaseFanForBridging,0
;   bridgingFanSpeed,100
;   use5D,1
;   relativeEdistances,1
;   allowEaxisZeroing,1
;   independentExtruderAxes,0
;   includeM10123,0
;   stickySupport,1
;   applyToolheadOffsets,0
;   gcodeXoffset,0
;   gcodeYoffset,0
;   gcodeZoffset,0
;   overrideMachineDefinition,1
;   machineTypeOverride,0
;   strokeXoverride,300
;   strokeYoverride,300
;   strokeZoverride,400
;   originOffsetXoverride,0
;   originOffsetYoverride,0
;   originOffsetZoverride,0
;   homeXdirOverride,-1
;   homeYdirOverride,-1
;   homeZdirOverride,-1
;   flipXoverride,1
;   flipYoverride,-1
;   flipZoverride,1
;   toolheadOffsets,0,0|0,0|0,0|0,0|0,0|0,0
;   overrideFirmwareConfiguration,0
;   firmwareTypeOverride,RepRap (Marlin/Repetier/Sprinter)
;   GPXconfigOverride,r2
;   baudRateOverride,115200
;   overridePrinterModels,0
;   printerModelsOverride
;   startingGcode,G28 ; home all axes
;   layerChangeGcode,
;   retractionGcode,
;   toolChangeGcode,
;   endingGcode,M104 S0 ; turn off extruder,M140 S0 ; turn off bed,M84 ; disable motors
;   exportFileFormat,x3g
;   celebration,0
;   celebrationSong,Random Song
;   postProcessing,
;   defaultSpeed,1800
;   outlineUnderspeed,1
;   solidInfillUnderspeed,1
;   supportUnderspeed,0.8
;   rapidXYspeed,4800
;   rapidZspeed,1002
;   minBridgingArea,50
;   bridgingExtraInflation,0
;   bridgingExtrusionMultiplier,1
;   bridgingSpeedMultiplier,1
;   useFixedBridgingAngle,0
;   fixedBridgingAngle,0
;   applyBridgingToPerimeters,0
;   filamentDiameters,1.75|1.75|1.75|1.75|1.75|1.75
;   filamentPricesPerKg,46|46|46|46|46|46
;   filamentDensities,1.25|1.25|1.25|1.25|1.25|1.25
;   useMinPrintHeight,0
;   minPrintHeight,0
;   useMaxPrintHeight,0
;   maxPrintHeight,0
;   useDiaphragm,0
;   diaphragmLayerInterval,20
;   robustSlicing,1
;   mergeAllIntoSolid,0
;   onlyRetractWhenCrossingOutline,0
;   retractBetweenLayers,0
;   useRetractionMinTravel,0
;   retractionMinTravel,3
;   retractWhileWiping,1
;   onlyWipeOutlines,1
;   avoidCrossingOutline,1
;   maxMovementDetourFactor,200
;   toolChangeRetractionDistance,12
;   toolChangeExtraRestartDistance,-0.5
;   toolChangeRetractionSpeed,600
;   externalThinWallType,0
;   internalThinWallType,2
;   thinWallAllowedOverlapPercentage,10
;   singleExtrusionMinLength,1
;   singleExtrusionMinPrintingWidthPercentage,50
;   singleExtrusionMaxPrintingWidthPercentage,200
;   singleExtrusionEndpointExtension,0.2
;   horizontalSizeCompensation,0
G90
M83
M106 S0
M140 S60
M190 S60
M104 S220 T0
M109 S220 T0
G28 ; home all axes
; process Process1
; layer 1, Z = 0.144
T0
G1 E-10.0000 F1800
; feature skirt
; tool H0.144 W0.480
G1 Z0.144 F1002
G1 X125.280 Y115.425 F4800
G1 E10.0000 F1800
G1 X128.045 Y112.660 E0.1348 F900
G1 X136.955 Y112.660 E0.3073
G1 X139.720 Y115.425 E0.1348
G1 X139.720 Y138.605 E0.7993
G1 X140.940 Y139.825 E0.0595
G1 X140.940 Y145.175 E0.1845
G1 X140.718 Y145.397 E0.0108
G1 X140.718 Y148.144 E0.0947
G1 X139.720 Y149.142 E0.0487
G1 X139.720 Y149.801 E0.0227
G1 X139.818 Y150.913 E0.0385
G1 X140.055 Y151.800 E0.0317
G1 X140.443 Y152.631 E0.0316
G1 X140.969 Y153.382 E0.0316
G1 X141.618 Y154.031 E0.0316
G1 X142.369 Y154.557 E0.0316
G1 X143.200 Y154.945 E0.0316
G1 X144.086 Y155.182 E0.0316
G1 X145.206 Y155.280 E0.0388
G1 X154.794 Y155.280 E0.3306
G1 X155.914 Y155.182 E0.0388
G1 X156.800 Y154.945 E0.0316
G1 X157.631 Y154.557 E0.0316
G1 X158.382 Y154.031 E0.0316
G1 X159.031 Y153.382 E0.0316
G1 X159.557 Y152.631 E0.0316
G1 X159.945 Y151.800 E0.0316
G1 X160.182 Y150.914 E0.0316
G1 X160.280 Y149.794 E0.0388
G1 X160.280 Y149.044 E0.0259
G1 X159.380 Y148.144 E0.0439
G1 X159.380 Y145.495 E0.0913
G1 X159.060 Y145.175 E0.0156
G1 X159.060 Y139.825 E0.1845
G1 X160.280 Y138.605 E0.0595
G1 X160.280 Y115.425 E0.7993
G1 X163.045 Y112.660 E0.1348
G1 X171.955 Y112.660 E0.3073
G1 X174.720 Y115.425 E0.1348
G1 X174.720 Y155.103 E1.3682
G1 X174.711 Y155.309 E0.0071
G1 X174.532 Y157.353 E0.0708
G1 X174.461 Y157.759 E0.0142
G1 X173.903 Y159.841 E0.0743
G1 X173.762 Y160.228 E0.0142
G1 X172.851 Y162.182 E0.0743
G1 X172.645 Y162.538 E0.0142
G1 X171.409 Y164.304 E0.0743
G1 X171.144 Y164.620 E0.0142
G1 X169.620 Y166.144 E0.0743
G1 X169.304 Y166.409 E0.0142
G1 X167.538 Y167.645 E0.0743
G1 X167.182 Y167.851 E0.0142
G1 X165.228 Y168.762 E0.0743
G1 X164.841 Y168.903 E0.0142
G1 X162.759 Y169.461 E0.0743
G1 X162.353 Y169.532 E0.0142
G1 X160.309 Y169.711 E0.0708
G1 X160.103 Y169.720 E0.0071
G1 X159.706 Y169.720 E0.0137
G1 X159.107 Y169.772 E0.0207
G1 X158.726 Y169.874 E0.0136
G1 X158.369 Y170.041 E0.0136
G1 X158.046 Y170.267 E0.0136
G1 X157.767 Y170.546 E0.0136
G1 X157.541 Y170.869 E0.0136
G1 X157.374 Y171.226 E0.0136
G1 X157.272 Y171.607 E0.0136
G1 X157.220 Y172.206 E0.0207
G1 X157.220 Y184.575 E0.4265
G1 X154.455 Y187.340 E0.1348
G1 X145.545 Y187.340 E0.3073
G1 X142.780 Y184.575 E0.1348
G1 X142.780 Y172.206 E0.4265
G1 X142.728 Y171.607 E0.0207
G1 X142.626 Y171.226 E0.0136
G1 X142.459 Y170.869 E0.0136
G1 X142.233 Y170.546 E0.0136
G1 X141.954 Y170.267 E0.0136
G1 X141.631 Y170.041 E0.0136
G1 X141.274 Y169.874 E0.0136
G1 X140.893 Y169.772 E0.0136
G1 X140.294 Y169.720 E0.0207
G1 X139.897 Y169.720 E0.0137
G1 X139.691 Y169.711 E0.0071
G1 X137.647 Y169.532 E0.0708
G1 X137.241 Y169.461 E0.0142
G1 X135.159 Y168.903 E0.0743
G1 X134.772 Y168.762 E0.0142
G1 X132.818 Y167.851 E0.0743
G1 X132.462 Y167.645 E0.0142
G1 X130.696 Y166.409 E0.0743
G1 X130.380 Y166.144 E0.0142
G1 X128.856 Y164.620 E0.0743
G1 X128.591 Y164.304 E0.0142
G1 X127.355 Y162.538 E0.0743
G1 X127.149 Y162.182 E0.0142
G1 X126.238 Y160.228 E0.0743
G1 X126.097 Y159.841 E0.0142
G1 X125.539 Y157.759 E0.0743
G1 X125.468 Y157.353 E0.0142
G1 X125.289 Y155.309 E0.0708
G1 X125.280 Y155.103 E0.0071
G1 X125.280 Y115.425 E1.3682
G1 E-10.0000 F1800
G1 X125.760 Y115.624 F4800
G1 E10.0000 F1800
G1 X128.244 Y113.140 E0.1211 F900
G1 X136.756 Y113.140 E0.2935
G1 X139.240 Y115.624 E0.1211
G1 X139.240 Y138.804 E0.7993
G1 X140.460 Y140.024 E0.0595
G1 X140.460 Y144.976 E0.1708
G1 X140.238 Y145.198 E0.0108
G1 X140.238 Y147.945 E0.0947
G1 X139.240 Y148.944 E0.0487
G1 X139.240 Y149.822 E0.0303
G1 X139.343 Y150.997 E0.0406
G1 X139.603 Y151.964 E0.0345
G1 X140.026 Y152.872 E0.0345
G1 X140.600 Y153.692 E0.0345
G1 X141.308 Y154.400 E0.0345
G1 X142.128 Y154.974 E0.0345
G1 X143.036 Y155.397 E0.0345
G1 X144.003 Y155.657 E0.0345
G1 X145.185 Y155.760 E0.0409
G1 X154.815 Y155.760 E0.3321
G1 X155.997 Y155.657 E0.0409
G1 X156.964 Y155.397 E0.0345
G1 X157.872 Y154.974 E0.0345
G1 X158.692 Y154.400 E0.0345
G1 X159.400 Y153.692 E0.0345
G1 X159.974 Y152.872 E0.0345
G1 X160.397 Y151.964 E0.0345
G1 X160.657 Y150.997 E0.0345
G1 X160.760 Y149.815 E0.0409
G1 X160.760 Y148.845 E0.0334
G1 X159.860 Y147.945 E0.0439
G1 X159.860 Y145.296 E0.0913
G1 X159.540 Y144.976 E0.0156
G1 X159.540 Y140.024 E0.1708
G1 X160.760 Y138.804 E0.0595
G1 X160.760 Y115.624 E0.7993
G1 X163.244 Y113.140 E0.1211
G1 X171.756 Y113.140 E0.2935
G1 X174.240 Y115.624 E0.1211
G1 X174.240 Y155.093 E1.3610
G1 X174.232 Y155.277 E0.0064
G1 X174.056 Y157.290 E0.0697
G1 X173.992 Y157.655 E0.0128
G1 X173.445 Y159.696 E0.0729
G1 X173.318 Y160.044 E0.0128
G1 X172.425 Y161.960 E0.0729
G1 X172.240 Y162.280 E0.0128
G1 X171.027 Y164.011 E0.0729
G1 X170.789 Y164.295 E0.0128
G1 X169.295 Y165.789 E0.0729
G1 X169.011 Y166.027 E0.0128
G1 X167.280 Y167.240 E0.0729
G1 X166.960 Y167.425 E0.0128
G1 X165.044 Y168.318 E0.0729
G1 X164.696 Y168.445 E0.0128
G1 X162.655 Y168.992 E0.0729
G1 X162.290 Y169.056 E0.0128
G1 X160.277 Y169.232 E0.0697
G1 X160.093 Y169.240 E0.0064
G1 X159.685 Y169.240 E0.0141
G1 X159.024 Y169.298 E0.0229
G1 X158.562 Y169.422 E0.0165
G1 X158.128 Y169.624 E0.0165
G1 X157.736 Y169.898 E0.0165
G1 X157.398 Y170.236 E0.0165
G1 X157.124 Y170.628 E0.0165
G1 X156.922 Y171.062 E0.0165
G1 X156.798 Y171.524 E0.0165
G1 X156.740 Y172.185 E0.0229
G1 X156.740 Y184.376 E0.4204
G1 X154.256 Y186.860 E0.1211
G1 X145.744 Y186.860 E0.2935
G1 X143.260 Y184.376 E0.1211
G1 X143.260 Y172.185 E0.4204
G1 X143.202 Y171.524 E0.0229
G1 X143.078 Y171.062 E0.0165
G1 X142.876 Y170.628 E0.0165
G1 X142.602 Y170.236 E0.0165
G1 X142.264 Y169.898 E0.0165
G1 X141.872 Y169.624 E0.0165
G1 X141.438 Y169.422 E0.0165
G1 X140.976 Y169.298 E0.0165
G1 X140.315 Y169.240 E0.0229
G1 X139.907 Y169.240 E0.0140
G1 X139.723 Y169.232 E0.0064
G1 X137.710 Y169.056 E0.0697
G1 X137.345 Y168.992 E0.0128
G1 X135.304 Y168.445 E0.0729
G1 X134.956 Y168.318 E0.0128
G1 X133.040 Y167.425 E0.0729
G1 X132.720 Y167.240 E0.0128
G1 X130.989 Y166.027 E0.0729
G1 X130.705 Y165.789 E0.0128
G1 X129.211 Y164.295 E0.0729
G1 X128.973 Y164.011 E0.0128
G1 X127.760 Y162.280 E0.0729
G1 X127.575 Y161.960 E0.0128
G1 X126.682 Y160.044 E0.0729
G1 X126.555 Y159.696 E0.0128
G1 X126.008 Y157.655 E0.0729
G1 X125.944 Y157.290 E0.0128
G1 X125.768 Y155.277 E0.0697
G1 X125.760 Y155.093 E0.0064
G1 X125.760 Y115.624 E1.3610
G1 E-10.0000 F1800
; feature inner perimeter
G1 X130.240 Y117.620 F4800
G1 X130.240 Y118.059
G1 X131.200 Y118.580
G1 E10.0000 F1800
G1 X133.800 Y118.580 E0.0897 F900
G1 X133.800 Y144.989 E0.9107
G1 X133.800 Y150.061 E0.1749
G1 X133.966 Y151.946 E0.0652
G1 X134.471 Y153.832 E0.0673
G1 X135.297 Y155.602 E0.0673
G1 X136.417 Y157.202 E0.0674
G1 X137.798 Y158.583 E0.0674
G1 X139.398 Y159.703 E0.0674
G1 X141.168 Y160.529 E0.0673
G1 X143.054 Y161.034 E0.0674
G1 X144.948 Y161.200 E0.0655
G1 X155.052 Y161.200 E0.3485
G1 X156.946 Y161.034 E0.0655
G1 X158.832 Y160.529 E0.0674
G1 X160.602 Y159.703 E0.0674
G1 X162.202 Y158.583 E0.0673
G1 X163.583 Y157.202 E0.0674
G1 X164.703 Y155.602 E0.0673
G1 X165.529 Y153.832 E0.0674
G1 X166.034 Y151.946 E0.0674
G1 X166.200 Y150.052 E0.0655
G1 X166.200 Y118.580 E1.0853
G1 X168.800 Y118.580 E0.0897
G1 X168.800 Y154.948 E1.2541
G1 X168.662 Y156.527 E0.0547
G1 X168.265 Y158.008 E0.0529
G1 X167.617 Y159.398 E0.0529
G1 X166.738 Y160.654 E0.0529
G1 X165.654 Y161.738 E0.0529
G1 X164.398 Y162.617 E0.0529
G1 X163.008 Y163.265 E0.0529
G1 X161.527 Y163.662 E0.0529
G1 X159.948 Y163.800 E0.0547
G1 X159.448 Y163.800 E0.0172
G1 X158.075 Y163.920 E0.0475
G1 X156.694 Y164.290 E0.0493
G1 X155.398 Y164.895 E0.0493
G1 X154.226 Y165.715 E0.0493
G1 X153.215 Y166.726 E0.0493
G1 X152.395 Y167.898 E0.0493
G1 X151.790 Y169.194 E0.0493
G1 X151.420 Y170.575 E0.0493
G1 X151.300 Y171.948 E0.0475
G1 X151.300 Y181.420 E0.3266
G1 X148.700 Y181.420 E0.0897
G1 X148.700 Y171.948 E0.3266
G1 X148.580 Y170.575 E0.0475
G1 X148.210 Y169.194 E0.0493
G1 X147.605 Y167.898 E0.0493
G1 X146.785 Y166.726 E0.0493
G1 X145.774 Y165.715 E0.0493
G1 X144.602 Y164.895 E0.0493
G1 X143.306 Y164.290 E0.0493
G1 X141.925 Y163.920 E0.0493
G1 X140.552 Y163.800 E0.0475
G1 X140.052 Y163.800 E0.0172
G1 X138.473 Y163.662 E0.0547
G1 X136.992 Y163.265 E0.0529
G1 X135.602 Y162.617 E0.0529
G1 X134.346 Y161.738 E0.0529
G1 X133.262 Y160.654 E0.0529
G1 X132.383 Y159.398 E0.0529
G1 X131.735 Y158.008 E0.0529
G1 X131.338 Y156.527 E0.0529
G1 X131.200 Y154.948 E0.0547
G1 X131.200 Y118.780 E1.2472
G1 X131.200 Y118.580 F900
G1 E-10.0000 F1800
G1 X130.720 Y118.100 F4800
G1 E10.0000 F1800
G1 X134.280 Y118.100 E0.1228 F900
G1 X134.280 Y145.469 E0.9438
G1 X134.280 Y150.040 E0.1576
G1 X134.440 Y151.862 E0.0631
G1 X134.924 Y153.667 E0.0645
G1 X135.714 Y155.361 E0.0645
G1 X136.786 Y156.892 E0.0645
G1 X138.108 Y158.214 E0.0645
G1 X139.639 Y159.286 E0.0645
G1 X141.333 Y160.076 E0.0645
G1 X143.138 Y160.560 E0.0645
G1 X144.969 Y160.720 E0.0634
G1 X155.031 Y160.720 E0.3470
G1 X156.862 Y160.560 E0.0634
G1 X158.667 Y160.076 E0.0645
G1 X160.361 Y159.286 E0.0645
G1 X161.892 Y158.214 E0.0645
G1 X163.214 Y156.892 E0.0645
G1 X164.286 Y155.361 E0.0645
G1 X165.076 Y153.667 E0.0645
G1 X165.560 Y151.862 E0.0645
G1 X165.720 Y150.031 E0.0634
G1 X165.720 Y118.100 E1.1011
G1 X169.280 Y118.100 E0.1228
G1 X169.280 Y154.969 E1.2714
G1 X169.136 Y156.611 E0.0568
G1 X168.718 Y158.173 E0.0558
G1 X168.034 Y159.639 E0.0558
G1 X167.107 Y160.963 E0.0558
G1 X165.963 Y162.107 E0.0558
G1 X164.639 Y163.034 E0.0558
G1 X163.173 Y163.718 E0.0558
G1 X161.611 Y164.136 E0.0558
G1 X159.969 Y164.280 E0.0568
G1 X159.469 Y164.280 E0.0172
G1 X158.159 Y164.395 E0.0453
G1 X156.859 Y164.743 E0.0464
G1 X155.639 Y165.312 E0.0464
G1 X154.536 Y166.084 E0.0464
G1 X153.584 Y167.036 E0.0464
G1 X152.812 Y168.139 E0.0464
G1 X152.243 Y169.359 E0.0464
G1 X151.895 Y170.659 E0.0464
G1 X151.780 Y171.969 E0.0453
G1 X151.780 Y181.900 E0.3425
G1 X148.220 Y181.900 E0.1228
G1 X148.220 Y171.969 E0.3425
G1 X148.105 Y170.659 E0.0453
G1 X147.757 Y169.359 E0.0464
G1 X147.188 Y168.139 E0.0464
G1 X146.416 Y167.036 E0.0464
G1 X145.464 Y166.084 E0.0464
G1 X144.361 Y165.312 E0.0464
G1 X143.141 Y164.743 E0.0464
G1 X141.841 Y164.395 E0.0464
G1 X140.531 Y164.280 E0.0453
G1 X140.031 Y164.280 E0.0172
G1 X138.389 Y164.136 E0.0568
G1 X136.827 Y163.718 E0.0558
G1 X135.361 Y163.034 E0.0558
G1 X134.037 Y162.107 E0.0558
G1 X132.893 Y160.963 E0.0558
G1 X131.966 Y159.639 E0.0558
G1 X131.282 Y158.173 E0.0558
G1 X130.864 Y156.611 E0.0558
G1 X130.720 Y154.969 E0.0569
G1 X130.720 Y118.300 E1.2645
G1 X130.720 Y118.100 F900
G1 E-10.0000 F1800
; feature outer perimeter
G1 X130.240 Y117.620 F4800
G1 E10.0000 F1800
